Avidclan_Website/assets/images/icons/usable-ic.svg

<?xml version="1.0" encoding="utf-8"?>
<!-- Generator: Adobe Illustrator 24.1.1, SVG Export Plug-In . SVG Version: 6.00 Build 0)  -->
<svg version="1.1" id="Layer_1" xmlns="http://www.w3.org/2000/svg" xmlns:xlink="http://www.w3.org/1999/xlink" x="0px" y="0px"
	 viewBox="0 0 440.3 377.9" style="enable-background:new 0 0 440.3 377.9;" xml:space="preserve">
<style type="text/css">
	.st0{fill:#007AFB;}
</style>
<g>
	<path class="st0" d="M438.5,278.5l-89-89v-89c0-15.2-12.3-27.5-27.5-27.5s-27.5,12.3-27.5,27.5V134l-83.8-83.4
		c-10.9-10.9-28.4-10.9-39.3,0c-10.9,10.9-10.9,28.4,0,39.3l54.9,54.9c-4.3,1.4-8.5,3.8-11.8,7.1c-7.1,7.1-9.5,17.1-7.1,26.5
		c-6.2,0.5-11.8,3.3-16.6,8.1c-7.1,7.1-9.5,17.1-7.1,26.5c-6.2,0.5-11.8,3.3-16.6,8.1c-5.2,5.2-8.1,12.3-8.1,19.4
		c0,7.1,2.8,14.2,8.1,19.4l30.8,30.8c21.3,21.3,52.1,29.8,81.5,23.2l62,62c1.4,1.4,3.3,1.9,5.2,1.9c1.9,0,3.8-0.5,5.2-1.9l86.7-87.6
		C440.9,285.6,440.9,281.3,438.5,278.5L438.5,278.5z M346.2,360.4l-59.7-59.7c-1.4-1.4-3.3-1.9-5.2-1.9c-0.5,0-1.4,0-1.9,0.5
		c-25.6,7.1-53,0-71.5-18.5l-30.8-30.8c-5.2-5.2-5.2-13.7,0-18.9c5.2-5.2,13.7-5.2,18.9,0c2.8,2.8,7.1,2.8,9.9,0
		c1.4-1.4,1.9-3.3,1.9-5.2s-0.5-3.8-1.9-5.2l-5.2-5.2c-2.4-2.4-3.8-5.7-3.8-9.5s1.4-7.1,3.8-9.5c5.2-5.2,13.7-5.2,18.9,0
		c2.8,2.8,7.1,2.8,9.9,0c1.4-1.4,1.9-3.3,1.9-5.2s-0.5-3.8-1.9-5.2l-5.2-5.2c-5.2-5.2-5.2-13.7,0-18.9c5.2-5.2,13.7-5.2,18.9,0
		c2.8,2.8,7.1,2.8,9.9,0c2.8-2.8,2.8-7.1,0-9.9l-72-72.4c-5.2-5.2-5.2-13.7,0-18.9c5.2-5.2,13.7-5.2,18.9,0l95.7,95.7
		c1.9,1.9,5.2,2.8,7.6,1.4c2.8-0.9,4.3-3.8,4.3-6.6v-50.7c0-7.6,6.2-13.3,13.3-13.3c7.1,0,13.3,6.2,13.3,13.3v91.9
		c0,1.9,0.9,3.8,1.9,5.2l87.1,86.2L346.2,360.4z"/>
	<path class="st0" d="M191.8,136.4c3.8,0,7.1-3.3,7.1-7.1s-3.3-7.1-7.1-7.1c-29.8,0-54-24.2-54-54c0-29.8,24.6-54,54-54
		s54,24.2,54,54c0,3.8,3.3,7.1,7.1,7.1c3.8,0,7.1-3.3,7.1-7.1C260,30.8,229.2,0,191.8,0c-35,0-63.9,27-67.7,61.1l-86.7,0l8.5-4.3
		c3.3-1.9,4.7-6.2,3.3-9.5c-1.9-3.3-6.2-4.7-9.5-3.3l-36,17.5c-0.5,0-0.9,0.5-1.4,0.9L1.9,63c-0.5,0.5-0.9,0.9-0.9,1.4v0.5
		c-0.5,0.5-0.5,0.9-0.5,1.4v0.5c0,0.5-0.5,0.9-0.5,1.9c0,0.9,0,1.4,0.5,1.9V71c0,0.5,0.5,0.9,0.5,1.4v0.5c0.5,0.5,0.5,0.9,0.9,1.4
		l0.5,0.5c0.5,0.5,0.9,0.5,1.4,0.9l36,17.5c0.9,0.5,1.9,0.9,3.3,0.9c2.8,0,5.2-1.4,6.2-3.8c1.9-3.3,0.5-7.6-3.3-9.5l-8.5-5.7h86.7
		C127.9,109.4,156.8,136.4,191.8,136.4L191.8,136.4z"/>
</g>
</svg>

<svg width="441" height="378" viewBox="0 0 441 378" fill="none" xmlns="http://www.w3.org/2000/svg">
<g clip-path="url(#clip0_493_925)">
<path d="M438.5 278.5L349.5 189.5V100.5C349.5 85.3 337.2 73 322 73C306.8 73 294.5 85.3 294.5 100.5V134L210.7 50.6C199.8 39.7 182.3 39.7 171.4 50.6C160.5 61.5 160.5 79 171.4 89.9L226.3 144.8C222 146.2 217.8 148.6 214.5 151.9C207.4 159 205 169 207.4 178.4C201.2 178.9 195.6 181.7 190.8 186.5C183.7 193.6 181.3 203.6 183.7 213C177.5 213.5 171.9 216.3 167.1 221.1C161.9 226.3 159 233.4 159 240.5C159 247.6 161.8 254.7 167.1 259.9L197.9 290.7C219.2 312 250 320.5 279.4 313.9L341.4 375.9C342.8 377.3 344.7 377.8 346.6 377.8C348.5 377.8 350.4 377.3 351.8 375.9L438.5 288.3C440.9 285.6 440.9 281.3 438.5 278.5ZM346.2 360.4L286.5 300.7C285.1 299.3 283.2 298.8 281.3 298.8C280.8 298.8 279.9 298.8 279.4 299.3C253.8 306.4 226.4 299.3 207.9 280.8L177.1 250C171.9 244.8 171.9 236.3 177.1 231.1C182.3 225.9 190.8 225.9 196 231.1C198.8 233.9 203.1 233.9 205.9 231.1C207.3 229.7 207.8 227.8 207.8 225.9C207.8 224 207.3 222.1 205.9 220.7L200.7 215.5C198.3 213.1 196.9 209.8 196.9 206C196.9 202.2 198.3 198.9 200.7 196.5C205.9 191.3 214.4 191.3 219.6 196.5C222.4 199.3 226.7 199.3 229.5 196.5C230.9 195.1 231.4 193.2 231.4 191.3C231.4 189.4 230.9 187.5 229.5 186.1L224.3 180.9C219.1 175.7 219.1 167.2 224.3 162C229.5 156.8 238 156.8 243.2 162C246 164.8 250.3 164.8 253.1 162C255.9 159.2 255.9 154.9 253.1 152.1L181.1 79.7C175.9 74.5 175.9 66 181.1 60.8C186.3 55.6 194.8 55.6 200 60.8L295.7 156.5C297.6 158.4 300.9 159.3 303.3 157.9C306.1 157 307.6 154.1 307.6 151.3V100.6C307.6 93 313.8 87.3 320.9 87.3C328 87.3 334.2 93.5 334.2 100.6V192.5C334.2 194.4 335.1 196.3 336.1 197.7L423.2 283.9L346.2 360.4Z" fill="#0E53BE"/>
<path d="M191.8 136.4C195.6 136.4 198.9 133.1 198.9 129.3C198.9 125.5 195.6 122.2 191.8 122.2C162 122.2 137.8 98 137.8 68.2C137.8 38.4 162.4 14.2 191.8 14.2C221.2 14.2 245.8 38.4 245.8 68.2C245.8 72 249.1 75.3 252.9 75.3C256.7 75.3 260 72 260 68.2C260 30.8 229.2 0 191.8 0C156.8 0 127.9 27 124.1 61.1H37.4L45.9 56.8C49.2 54.9 50.6 50.6 49.2 47.3C47.3 44 43 42.6 39.7 44L3.7 61.5C3.2 61.5 2.8 62 2.3 62.4L1.9 63C1.4 63.5 1 63.9 1 64.4V64.9C0.5 65.4 0.5 65.8 0.5 66.3V66.8C0.5 67.3 0 67.7 0 68.7C0 69.6 0 70.1 0.5 70.6V71C0.5 71.5 1 71.9 1 72.4V72.9C1.5 73.4 1.5 73.8 1.9 74.3L2.4 74.8C2.9 75.3 3.3 75.3 3.8 75.7L39.8 93.2C40.7 93.7 41.7 94.1 43.1 94.1C45.9 94.1 48.3 92.7 49.3 90.3C51.2 87 49.8 82.7 46 80.8L37.5 75.1H124.2C127.9 109.4 156.8 136.4 191.8 136.4Z" fill="#0E53BE"/>
</g>
<defs>
<clipPath id="clip0_493_925">
<rect width="440.3" height="377.9" fill="white"/>
</clipPath>
</defs>
</svg>
